assets/appearance-icon.svg

<svg height="40" viewBox="0 0 40 40" width="40" xmlns="http://www.w3.org/2000/svg"><path d="m45 25c11.045695 0 20 8.954305 20 20s-8.954305 20-20 20-20-8.954305-20-20 8.954305-20 20-20zm0 3.125-.0010029 6.875c-5.5223866.000542-9.9989971 4.4774868-9.9989971 10 0 5.5228475 4.4771525 10 10 10h-.001l.001 6.875c9.2102112-.2411422 16.6990307-7.3861221 16.871944-16.5507132l.003056-.3242868c0-9.3198052-7.5551948-16.875-16.875-16.875zm0 6.875c5.5228475 0 10 4.4771525 10 10s-4.4771525 10-10 10h-.001l-.0000029-20z" fill="#fff" fill-opacity=".5" fill-rule="evenodd" transform="translate(-25 -25)"/></svg>

<?xml version="1.0" encoding="UTF-8"?>
<svg width="40px" height="40px" viewBox="0 0 40 40" version="1.1" xmlns="http://www.w3.org/2000/svg" xmlns:xlink="http://www.w3.org/1999/xlink">
    <title>Combined Shape</title>
    <g id="Web" stroke="none" stroke-width="1" fill="none" fill-rule="evenodd" fill-opacity="0.5">
        <g id="Artboard" transform="translate(-1001.000000, -1194.000000)" fill="#FFFFFF">
            <g id="2x_wall" transform="translate(976.000000, 1169.000000)">
                <path d="M45,25 C56.045695,25 65,33.954305 65,45 C65,56.045695 56.045695,65 45,65 C33.954305,65 25,56.045695 25,45 C25,33.954305 33.954305,25 45,25 Z M45,28.125 L44.9989971,35 C39.4766105,35.000542 35,39.4774868 35,45 C35,50.5228475 39.4771525,55 45,55 L44.999,55 L45,61.875 C54.2102112,61.6338578 61.6990307,54.4888779 61.871944,45.3242868 L61.875,45 C61.875,35.6801948 54.3198052,28.125 45,28.125 L45,28.125 Z M45,35 C50.5228475,35 55,39.4771525 55,45 C55,50.5228475 50.5228475,55 45,55 L44.999,55 L44.9989971,35 C44.9993314,35 44.9996657,35 45,35 Z" id="Combined-Shape"></path>
            </g>
        </g>
    </g>
</svg>
